X:1
T:Partition sans titre
C:Compositeur / Arrangeur
L:1/8
M:4/4
I:linebreak $
K:A
V:1 treble nm="Violon" snm="Vln."
V:1
"A" e3 e dcBA | cBAB"D" F3 E | F2 AF"E" EFAB |"A" c2 B6 |"A" e3 e dcBA | cBAB"D" F3 E | %6
 F2 AF"E" EFEC | B,2"A" A,6 ::"D" F2 FE FGAB |"A" c2 BA"D" F2 FE | F2 AF"E" EFAB |"A" c2 B6 |1 %12
"D" F2 FE FGAB |"A" c2 BA"D" F2 FE | F2 AF"E" EFEC | B,2"A" A,6 :|2"A" e3 e dcBA | cBAB"D" F3 E | %18
 F2 AF"E" EFEC | B,2"A" A,6 |] %20
